X:270
T: Rowsome's Kerry Jig
T: Port Ciarra\'ioch
S: B.Breathnach:"Ceol Rince na hEireann" III/36
Z: B.Black
L: 1/8
M: 12/8
Q: 360
R: slide
K: G
B2c|A3 A2G AcA A2F|G2E A2F G2E E3|
A2A A2c B2G G3|1 Bcd BAG c3 :|2 Bcd BAG c3-c2 ||
d|efe e2d e2f g2z|G2G G2F G2G E3|
A3 A2c B2G G3|1 Bcd BAG c3 c2 :|2 Bcd BAG c3 ||
